icons/linear-ele-other-bicycle.svg

<svg xmlns="http://www.w3.org/2000/svg" width="32px" height="32px" viewBox="0 0 32 32" version="1.1">
    <title>linear-ele-other-bicycle</title>
    <g id="linear-ele-other-bicycle" stroke-width="1" fill-rule="evenodd">
        <path d="M20,4 C20.4588676,4 20.8588507,4.31229737 20.9701425,4.75746437 L23.7820291,16.0038857 L23.8907781,16.0009742 L24,16 C27.3137085,16 30,18.6862915 30,22 C30,25.3137085 27.3137085,28 24,28 C21.0272855,28 18.5595044,25.8381232 18.0830939,23.0008069 L13.9169061,23.0008069 C13.4404956,25.8381232 10.9727145,28 8,28 C4.6862915,28 2,25.3137085 2,22 C2,18.8149628 4.48172439,16.2095634 7.6169446,16.0120304 L6.279,12 L3,12 C2.48716416,12 2.06449284,11.6139598 2.00672773,11.1166211 L2,11 C2,10.4477153 2.44771525,10 3,10 L7,10 C7.43043041,10 7.81256925,10.2754301 7.9486833,10.6837722 L9.81492469,16.2793905 C10.1940782,16.3995719 10.556922,16.5564049 10.899296,16.7457295 L19.883,8.659 L19.218,6 L15,6 C14.4871642,6 14.0644928,5.61395981 14.0067277,5.11662113 L14,5 C14,4.44771525 14.4477153,4 15,4 L20,4 Z M8,18 C5.790861,18 4,19.790861 4,22 C4,24.209139 5.790861,26 8,26 C9.86356525,26 11.429479,24.7256022 11.8737865,23.0007613 L9,23 C8.44771525,23 8,22.5522847 8,22 C8,21.4477153 8.44771525,21 9,21 L11.8740452,21.0002435 C11.4300871,19.2748927 9.86392711,18 8,18 Z M24,18 C21.790861,18 20,19.790861 20,22 C20,24.209139 21.790861,26 24,26 C26.209139,26 28,24.209139 28,22 C28,19.790861 26.209139,18 24,18 Z M21.8208632,16.4079794 L20.432,10.855 L12.4821667,18.0111488 C13.2162981,18.835484 13.7264396,19.8636707 13.9170737,21.0001915 L18.0829263,21.0001915 C18.4358519,18.8961229 19.8838577,17.1633587 21.8208632,16.4079794 Z" id="&#24418;&#29366;" fill-rule="nonzero" />
    </g>
</svg>

<svg xmlns="http://www.w3.org/2000/svg" viewBox="0 0 32 32"><path fill="currentColor" d="M20 4a1 1 0 0 1 .97.757l2.812 11.247.109-.003L24 16a6 6 0 1 1-5.917 7h-4.166A6.002 6.002 0 0 1 2 22a6 6 0 0 1 5.617-5.988L6.279 12H3a1 1 0 0 1-.993-.883L2 11a1 1 0 0 1 1-1h4a1 1 0 0 1 .949.684l1.866 5.595c.38.12.742.277 1.084.467l8.984-8.087L19.218 6H15a1 1 0 0 1-.993-.883L14 5a1 1 0 0 1 1-1zM8 18a4 4 0 1 0 3.874 5H9a1 1 0 0 1 0-2h2.874A4.002 4.002 0 0 0 8 18m16 0a4 4 0 1 0 0 8 4 4 0 0 0 0-8m-2.18-1.592-1.388-5.553-7.95 7.156a5.979 5.979 0 0 1 1.435 2.99h4.166a6.009 6.009 0 0 1 3.738-4.593"/></svg>
